X:24
T:Eagle's Whistle, The
Z:www.antplat.ru
M:3/2
L:1/4
Q:1/4=180
K:C
|:E2 G> EDC| E2 G> EDC|D2 D> EDC|D2 D> EDC|
E2 G> EDC| E2 G> EDE|C2 C> EDE|C2 C> EDC:|
|:A2 GAcG|A2G>EDC|D2 D> EDC|D2 D> EDC|
A2 GAcG|A2G>EDC|C2 C> EDE|C2 C> EDC:|

